X: 6382
T: Castle Hill, The
R: reel
M: 4/4
K: Dmajor
|:A,B,DE FD (3DDD|ABBd BADF|ABdA BAAF|DEFD EDB,G,|
A,B,DE FD (3DDD|ABBd BADF|ABdA BAFD|1 EDB,A, DDDB,:|2 EDB,A, DDDF||
|:(3EED FA Addf|(3ffe fd edBd|effe edBd|BADE FEEF|(3EED FA Addf|
(3ffe fd edBd|1 efed BADF|AFEF DDDF:|2 effa edBd|AFEF DDDB,||

